X:3593
T:Le Rossignol
O:england
C:Accordéon en Aubrac
M:3/4
L:1/4
K:C
Gcd|e2e|e2e|e2e|\
gfe|d2g|d2e|c3-|c3:|\
|:def|g3|
agf|e3|1 ede|gfe|\
d>cd/e/|d3-|d3:|2 def|\
e3|ded|c3-|c3||


